X:184
T:Whistling Postman, The
R:reel
Z:transcribed by Dave Marshall
M:C|
K:D
|: f~d3 edef | dBAF E2FE | DEED AGFA | Bdef g2ag |
f~d3 edef | dBAF E2FE | DEED ABdf | edBc d2 de :|
| f~d3 dfaf | bfaf gfec | dfaf g2fg | afdf e2 de |
f~d3 dfaf | bfaf gfec | dBAF ABdf | edBc d2 de |
f~d3 dfaf | bfaf gfec | dfaf g2fg | afdf e2 fg |
a3b afdf | g2fg edBc | dBAF ABdf | edBc d2 de |
